X:1
T:Open String Drone and D Major Scale
C:Exercise
M:4/4
L:1/4
Q:1/4=72
K:D
|: D D D D | A A A A | D E F G | A B c d |
   d c B A | G F E D | A, A A A | D4 :|
